X:1
T:Ingerid Sletten
T:W. Peterson-Berger (1867-1942)
T:E.A. Karlfeldt
T:Dalmarsch
T:©PA Aglert
T:©PA Aglert
T:©PA Aglert
T:©PA Aglert
T:©PA Aglert
T:©PA Aglert
T:©PA Aglert
T:©PA Aglert
T:©PA Aglert
T:©PA Aglert
T:©PA Aglert
T:©PA Aglert
T:©PA Aglert
C:W. Peterson-Berger (1867-1942)
Z:©PA Aglert
%%score [ 1 2 3 4 ]
L:1/8
Q:1/4=100
M:2/4
K:G
V:1 treble nm="S"
V:2 treble nm="A"
V:3 treble-8 nm="T"
V:4 bass nm="B"
V:1
"^Raskt och tryggt"!mf! G>G GA | B2 Bd | cB AG | (FA) ED | G>A Bd | f2 fd | e2 ef | d3 D | G>G GA | %9
w: Mar- schen går till|Tu- na på|hed och bac- kar|bru- * na, och|mar- schen går till|Mo- ra och|ber- gen de|blå. Med|hac- ka och med|
w: |||||||||
w: |||||||||
w: |||||||||
w: |||||||||
w: |||||||||
w: |||||||||
 B2 Bd | cB AG | FA ED | GA Bd | f2 fd | e>c ef | d3 e | c>B AG | (FA) ED | G>F GB | (Ad) Dd | %20
w: spa- de vi|dra- ga hem så|gla- * de till|sko- gar- na de|sto- ra och|kul- lor- na de|små. *|||||
w: ||||||* Hur|lätt det är att|vand- * ra, I|brö- der med var-|and- * ra, när|
w: |||||||||||
w: |||||||||||
w: |||||||||||
w: |||||||||||
w: |||||||||||
 c>B AG | (FA) ED | G>F GB | A3 d | c>B AG | (FA) ED | G>F GB | (Ad) Dd | c>B AG | (FA) ED | %30
w: ||||||||||
w: slan- tar- na i|fic- * kan slå|takt mot byx- ans|skinn! Hur|kla- ri- net- ten|lå- * ter, då|spel- man vän- der|å- * ter med|brud- gums- skänk åt|flic- * kan och|
w: ||||||||||
w: ||||||||||
w: ||||||||||
w: ||||||||||
w: ||||||||||
 G>F GB | d3 D | G>G GA | B2 Bd | cB AG | (FA) ED | G>A Bd | f2 fg | e>d ef | d3 d | %40
w: ||||||||||
w: bröl- lops- lust i|sinn! *|||||||||
w: |* Hur|kla- ri- net- ten|lå- ter då|spel- man vän- der|å- * ter med|brud- gums- skänk åt|flic- kan och|bröl- lops- lust i|sinn, *|
w: |||||||||* och|
w: ||||||||||
w: ||||||||||
w: ||||||||||
"^dim.""^rit." c>B cd | B3 d |!>(! c>B c!>)!d |!p! B3!mf! B, |"^a tempo" EF GA | !tenuto!B2 BB | %46
w: ||||||
w: ||||||
w: ||||||
w: bröl- lops- lust i|sinn, och|bröl- lops- lust i|sinn! Du|dyst- re far i|hu- set, vi|
w: ||||||
w: ||||||
w: ||||||
 !tenuto!cB Ac | !tenuto!B2 BB | cB AB | (GF) EG | FE DE | F3 B, | E>F GA | !tenuto!B2 BB | cB Ac | %55
w: |||||||||
w: |||||||||
w: |||||||||
w: står ditt öl i|kru- set och|sur- nar än och|sko- * nas? Låt|gläd- jen dväl- jas|här! Du|mor sätt på din|gry- ta, låt|smör i grö- ten|
w: |||||||||
w: |||||||||
w: |||||||||
 B2 BB | cB AB | (GF) EF |!<(! GA B^c!<)! |!f! d4- | d4 |"^con bocc. ch." d4- | d4- | d4- | d3 D | %65
w: ||||||||||
w: ||||||||||
w: ||||||||||
w: fly- ta, ty|här är Sjung- ar-|Jo- * nas och|här är Kron- gårds-|Per!||||||
w: |||||||||* gån|
w: ||||||||||
w: ||||||||||
 G>A Bd | f2 fd | e>c ef | d3 D | G>G GA | B2 Bd | cB AG | (FA) ED | G>A Bd | f2 fd | e>c ef | %76
w: |||||||||||
w: |||||||||||
w: |||||||||||
w: |||||||||||
w: med dit upp till|Sil- jan i|da- la- marsch- ens|takt! *||||||||
w: |||* Gån|med och skå- den|lan- den, där|kyr- kor- na på|stran- * den stå|glim- man- de som|lil- jan ut-|i sin vi- ta|
w: |||||||||||
 d3 e | c>B AG | (FA) ED | G>F GB | (Ad) Dd | c>B AG | (FA) ED |"^rit." G>F GB | %84
w: ||||||||
w: ||||||||
w: ||||||||
w: ||||||||
w: ||||||||
w: prakt! *||||||||
w: * Se|ha- gar- na sig|fär- * ga som|eld i Brunn- bäcks|fär- * ja och|älv och bäc- kar|rin- * na med|hög och höst- lig|
 !fermata!F3"^a tempo" B, | EF GA | !tenuto!B2 BB | cB Ac | !tenuto!B2 B!f!B | e>d cB | (AG) FE | %91
w: |||||||
w: |||||||
w: |||||||
w: |||||||
w: |||||||
w: |||||||
w: låt. In|un- der mör- ka|sky- ar vi|häl- sa vå- ra|by- ar. För|oss ska vax- ljus|brin- * na, för|
 D2 G2 | B2 d2 |!ff! g4- | g4 | g3 z |] %96
w: |||||
w: |||||
w: |||||
w: |||||
w: |||||
w: |||||
w: oss skall|fö- ras|ståt!|||
V:2
!mf! B,>B, B,D | G2 FF | ED CB, | A,2 CC | B,>D GA | B2 GG | G2 FF | G3 D | B,>B, B,D | G2 FF | %10
w: Mar- schen går till|Tu- na på|hed och bac- kar|bru- na, och|mar- schen går till|Mo- ra och|ber- gen de|blå. Med|hac- ka och med|spa- de vi|
w: ||||||||||
w: ||||||||||
w: ||||||||||
w: ||||||||||
w: ||||||||||
w: ||||||||||
 ED CB, | A,2 CC | B,D GA | B2 GG | G>G FF | G3 G | F>F FD | C2 CC | B,>B, B,D | D2 DD | F>F FD | %21
w: dra- ga hem så|gla- de till|sko- gar- na de|sto- ra och|kul- lor- na de|små. *||||||
w: |||||* Hur|lätt det är att|vand- ra, I|brö- der med var-|and- ra, när|slan- tar- na i|
w: |||||||||||
w: |||||||||||
w: |||||||||||
w: |||||||||||
w: |||||||||||
 C2 CC | B,>B, ^CC | D3 F | F>F FD | C2 CC | B,>B, ^CC | D2 DD | F>F FD | C2 CC | B,>B, ^CC | %31
w: ||||||||||
w: fic- kan slå|takt mot byx- ans|skinn! Hur|kla- ri- net- ten|lå- ter, då|spel- man vän- der|å- ter med|brud- gums- skänk åt|flic- kan och|bröl- lops- lust i|
w: ||||||||||
w: ||||||||||
w: ||||||||||
w: ||||||||||
w: ||||||||||
 D3 D | B,>B, B,D | G2 GF | ED CB, | A,2 CC | B,>D GA | B2 GG | G>G FF | G3 G | %40
w: |||||||||
w: sinn! *|||||||||
w: * Hur|kla- ri- net- ten|lå- ter då|spel- man vän- der|å- ter med|brud- gums- skänk åt|flic- kan och|bröl- lops- lust i|sinn, *|
w: ||||||||* och|
w: |||||||||
w: |||||||||
w: |||||||||
"^dim.""^rit." E>E EE | ^D3 =D |!>(! E>E E!>)!E |!p! ^D3!mf! B, |"^a tempo" EF GA | !tenuto!B2 BB | %46
w: ||||||
w: ||||||
w: ||||||
w: bröl- lops- lust i|sinn, och|bröl- lops- lust i|sinn! Du|dyst- re far i|hu- set, vi|
w: ||||||
w: ||||||
w: ||||||
 !tenuto!cB Ac | !tenuto!B2 BB | cB AB | (GF) EG | FE DE | F3 B, | E>F GA | !tenuto!B2 BB | cB Ac | %55
w: |||||||||
w: |||||||||
w: |||||||||
w: står ditt öl i|kru- set och|sur- nar än och|sko- * nas? Låt|gläd- jen dväl- jas|här! Du|mor sätt på din|gry- ta, låt|smör i grö- ten|
w: |||||||||
w: |||||||||
w: |||||||||
 B2 BB | cB AB | (GF) EF |!<(! GA B!<)!^c |!f! (d2 D2-) | D4 |"^con bocc. ch." D4- | D4- | D4- | %64
w: |||||||||
w: |||||||||
w: |||||||||
w: fly- ta, ty|här är Sjung- ar-|Jo- * nas och|här är Kron- gårds-|Per! *|||||
w: |||||||||
w: |||||||||
w: |||||||||
 D3 D | D>D GA | B2 GG | G>G FF | G3 D | B,>B, B,D | G2 FF | ED CB, | A,2 CC | B,>D GA | B2 GG | %75
w: |||||||||||
w: |||||||||||
w: |||||||||||
w: |||||||||||
w: * gån|med dit upp till|Sil- jan i|da- la- marsch- ens|takt! *|||||||
w: ||||* Gån|med och skå- den|lan- den, där|kyr- kor- na på|stran- den stå|glim- man- de som|lil- jan ut-|
w: |||||||||||
 G>G FF | G3 G | F>F FD | C2 CC | B,>B, B,D | D2 DD | F>F FD | C2 CC |"^rit." ^C>C CC | %84
w: |||||||||
w: |||||||||
w: |||||||||
w: |||||||||
w: |||||||||
w: i sin vi- ta|prakt! *||||||||
w: |* Se|ha- gar- na sig|fär- ga som|eld i Brunn- bäcks|fär- ja och|älv och bäc- kar|rin- na med|hög och höst- lig|
 !fermata!^D3"^a tempo" B, | EF GA | !tenuto!B2 BB | cB Ac | !tenuto!B2 B!f!B | e>d cB | (AG) FE | %91
w: |||||||
w: |||||||
w: |||||||
w: |||||||
w: |||||||
w: |||||||
w: låt. In|un- der mör- ka|sky- ar vi|häl- sa vå- ra|by- ar. För|oss ska vax- ljus|brin- * na, för|
 D2 D2 | F2 F2 |!ff! G4- | G4- | G3 z |] %96
w: |||||
w: |||||
w: |||||
w: |||||
w: |||||
w: |||||
w: oss skall|fö- ras|ståt!|||
V:3
!mf!"^con bocc. ch." G4 | G4 | G4 | G4 | G3 B | d2 B2 | c2 A2 | B3 z | G4 | G4 | G4 | G4 | G3 B | %13
w: |||||||||||||
w: |||||||||||||
w: |||||||||||||
w: |||||||||||||
w: |||||||||||||
 d2 B2 | c2 A2 | B3 B | e>d cB | A2 GF | G>G GG | F2 Dd | e>d cB | A2 GF | G>G GG | (F2 D)d | %24
w: ||* Hur|lätt det är att|vand- ra, I|brö- der med var-|and- ra, när|slan- tar- na i|fic- kan slå|takt mot byx- ans|skinn! * Hur|
w: |||||||||||
w: |||||||||||
w: |||||||||||
w: |||||||||||
 e>d cB | A2 GF | G>G GG | F2 DB | e>d cB | A2 GF | G>G GG | F3 z |"^con bocc. ch." G4 | G4 | G4 | %35
w: kla- ri- net- ten|lå- ter, då|spel- man vän- der|å- ter med|brud- gums- skänk åt|flic- kan och|bröl- lops- lust i|sinn!||||
w: |||||||||||
w: |||||||||||
w: |||||||||||
w: |||||||||||
 G4 | G3 B | d2 B2 | c2 A2 | B3 B |"^dim.""^rit." A>A GG | F3 F |!>(! A>A G!>)!G |!p! F3!mf! B, | %44
w: |||||||||
w: ||||* och|bröl- lops- lust i|sinn, och|bröl- lops- lust i|sinn! Du|
w: |||||||||
w: |||||||||
w: |||||||||
"^a tempo" EF GA | !tenuto!B2 BB | !tenuto!cB Ac | !tenuto!B2 BB | cB AB | (GF) EG | FE DE | %51
w: |||||||
w: dyst- re far i|hu- set, vi|står ditt öl i|kru- set och|sur- nar än och|sko- * nas? Låt|gläd- jen dväl- jas|
w: |||||||
w: |||||||
w: |||||||
 F3 B, | E>F GA | !tenuto!B2 BB | cB Ac | B2 BB | cB AB | (GF) EF |!<(! GA B!<)!^c |!f! d4- | %60
w: |||||||||
w: här! Du|mor sätt på din|gry- ta, låt|smör i grö- ten|fly- ta, ty|här är Sjung- ar-|Jo- * nas och|här är Kron- gårds-|Per!|
w: |||||||||
w: |||||||||
w: |||||||||
 d2 z!mf! D | G>G GA | B2 Bd | cB AG | (FA) EF | G>G GB | d2 BB | c>c AA | B3 z | %69
w: |||||||||
w: |||||||||
w: * I|berg- slags- män på|vre- ten, som|strä- ven och ar-|be- * ten, *|||||
w: ||||* * * gån|med dit upp till|Sil- jan i|da- la- marsch- ens|takt!|
w: |||||||||
"^con bocc. ch." G4 | G4 | G4 | G4 | G3 B | d2 B2 | c2 A2 | B3 B | e>d cB | A2 GF | G>G GG | %80
w: |||||||||||
w: |||||||||||
w: |||||||||||
w: |||||||||||
w: |||||||* Se|ha- gar- na sig|fär- ga som|eld i Brunn- bäcks|
 F2 Dd | e>d cB | A2 GF |"^rit." G>G AG | !fermata!B3"^a tempo" B, | EF GA | !tenuto!B2 BB | %87
w: |||||||
w: |||||||
w: |||||||
w: |||||||
w: fär- ja och|älv och bäc- kar|rin- na med|hög och höst- lig|låt. In|un- der mör- ka|sky- ar vi|
 cB Ac | !tenuto!B2 B!f!B | e>d cB | (AG) FE | D2 B2 | d2 c2 |!ff! B4- | B4- | B3 z |] %96
w: |||||||||
w: |||||||||
w: |||||||||
w: |||||||||
w: häl- sa vå- ra|by- ar. För|oss ska vax- ljus|brin- * na, för|oss skall|fö- ras|ståt!|||
V:4
!mf!"^con bocc. ch." [G,,D,]4 | [G,,D,]4 | [G,,D,]4 | [G,,D,]4 | [G,,D,]4 | [G,,D,]4 | [G,,D,]4 | %7
w: |||||||
w: |||||||
w: |||||||
w: |||||||
w: |||||||
 [G,,D,]3 z | [G,,D,]4 | [G,,D,]4 | [G,,D,]4 | [G,,D,]4 | [G,,D,]4 | [G,,D,]4 | [G,,D,]4 | %15
w: ||||||||
w: ||||||||
w: ||||||||
w: ||||||||
w: ||||||||
 [G,,D,]3 [G,,D,] | D,D, D,D, | D,2 D,D, | D,>D, D,D, | D,2 D,D, | D,>D, D,D, | D,2 D,D, | %22
w: * Hur|lätt det är att|vand- ra, I|brö- der med var-|and- ra, när|slan- tar- na i|fic- kan slå|
w: |||||||
w: |||||||
w: |||||||
w: |||||||
 D,>D, D,D, | D,3 D, | D,>D, D,D, | D,2 D,D, | D,>D, D,D, | D,2 D,D, | D,>D, D,D, | D,2 D,D, | %30
w: takt mot byx- ans|skinn! Hur|kla- ri- net- ten|lå- ter, då|spel- man vän- der|å- ter med|brud- gums- skänk åt|flic- kan och|
w: ||||||||
w: ||||||||
w: ||||||||
w: ||||||||
 D,>D, D,D, | D,3 z |"^con bocc. ch." [G,,D,]4 | [G,,D,]4 | [G,,D,]4 | [G,,D,]4 | [G,,D,]4 | %37
w: bröl- lops- lust i|sinn!||||||
w: |||||||
w: |||||||
w: |||||||
w: |||||||
 [G,,D,]4 | [G,,D,]4 | [G,,D,]3 [G,,D,] |"^dim.""^rit." A,,>A,, A,,A,, | B,,3 B,, | %42
w: |||||
w: ||* och|bröl- lops- lust i|sinn, och|
w: |||||
w: |||||
w: |||||
!>(! A,,>A,, A,,!>)!A,, |!p! B,,3!mf! B,, |"^a tempo" E,F, G,A, | !tenuto!B,2 B,B, | %46
w: ||||
w: bröl- lops- lust i|sinn! Du|dyst- re far i|hu- set, vi|
w: ||||
w: ||||
w: ||||
 !tenuto!CB, A,C | !tenuto!B,2 B,B, | CB, A,B, | (G,F,) E,G, | F,E, D,E, | F,3 B,, | E,>F, G,A, | %53
w: |||||||
w: står ditt öl i|kru- set och|sur- nar än och|sko- * nas? Låt|gläd- jen dväl- jas|här! Du|mor sätt på din|
w: |||||||
w: |||||||
w: |||||||
 !tenuto!B,2 B,B, | CB, A,C | B,2 B,B, | CB, A,B, | (G,F,) E,F, |!<(! G,A, B,!<)!^C |!f! D4- | %60
w: |||||||
w: gry- ta, låt|smör i grö- ten|fly- ta, ty|här är Sjung- ar-|Jo- * nas och|här är Kron- gårds-|Per!|
w: |||||||
w: |||||||
w: |||||||
 D2 z!mf! D, | B,,>B,, B,,D, | G,2 G,F, | E,D, C,B,, | (A,,C,) C,C, | B,,>B,, [G,,D,][G,,D,] | %66
w: ||||||
w: ||||||
w: * I|berg- slags- män på|vre- ten, som|strä- ven och ar-|be- * ten, *||
w: ||||* * * gån|med dit upp till|
w: ||||||
 [G,,D,]2 [G,,D,][G,,D,] | [G,,D,]>[G,,D,] [G,,D,][G,,D,] | [G,,D,]3 z |"^con bocc. ch." [G,,D,]4 | %70
w: ||||
w: ||||
w: ||||
w: Sil- jan i|da- la- marsch- ens|takt!||
w: ||||
 [G,,D,]4 | [G,,D,]4 | [G,,D,]4 | [G,,D,]4 | [G,,D,]4 | [G,,D,]4 | [G,,D,]3 [G,,D,] | D,>D, D,D, | %78
w: ||||||||
w: ||||||||
w: ||||||||
w: ||||||||
w: ||||||* Se|ha- gar- na sig|
 D,2 D,D, | D,>D, D,D, | D,2 D,D, | D,>D, D,D, | D,2 D,D, |"^rit." E,>E, E,E, | %84
w: ||||||
w: ||||||
w: ||||||
w: ||||||
w: fär- ga som|eld i Brunn- bäcks|fär- ja och|älv och bäc- kar|rin- na med|hög och höst- lig|
 (B,2 !fermata!B,,)"^a tempo"B,, | E,F, G,A, | !tenuto!B,2 B,B, | CB, A,C | !tenuto!B,2 B,!f!B, | %89
w: |||||
w: |||||
w: |||||
w: |||||
w: låt. * In|un- der mör- ka|sky- ar vi|häl- sa vå- ra|by- ar. För|
 E>D CB, | (A,G,) F,E, | D,2 D,2 | D,2 D,2 |!ff! [G,,D,]4- | [G,,D,]4- | [G,,D,]3 z |] %96
w: |||||||
w: |||||||
w: |||||||
w: |||||||
w: oss ska vax- ljus|brin- * na, för|oss skall|fö- ras|ståt!|||

